static/assets/images/networks/berachain-mono.svg

<svg width="478" height="256" viewBox="0 0 478 256" fill="none" xmlns="http://www.w3.org/2000/svg">
<path d="M236.834 98.0842C240.551 107.303 246.192 116.712 253.755 126.311C258.24 132.005 261.62 138.525 263.894 145.871C265.928 152.446 266.802 159.611 266.516 167.364C265.794 186.711 259.285 204.327 246.987 220.215C243.676 224.499 240.024 227.898 236.029 230.412C226.422 236.468 215.941 239.937 204.586 240.818C191.669 241.819 179.079 242.343 166.818 242.39C165.602 242.39 164.416 242.785 163.434 243.517C156.795 248.423 149.546 252.114 141.686 254.59C135.26 256.612 128.903 256.459 122.615 254.131C117.4 252.211 112.522 249.642 107.982 246.424C106.503 245.367 104.958 244.416 103.349 243.572C101.87 242.784 100.159 242.385 98.2176 242.376C85.3 242.274 73.3718 241.815 62.433 240.999C52.8258 240.284 43.6069 237.59 34.7764 232.916C28.6181 229.651 23.3383 225.163 18.9369 219.449C15.4694 214.942 12.0157 209.071 8.576 201.837C4.12836 192.479 1.39136 182.695 0.364979 172.484C-1.06825 158.173 1.71961 144.976 8.72857 132.891C8.73781 132.863 11.9372 128.37 18.3266 119.411C23.0146 112.835 26.8982 105.879 29.9773 98.5433C30.1421 98.1565 30.2044 97.7332 30.1582 97.3141C30.112 96.895 29.959 96.4943 29.7138 96.1505C20.8185 83.6207 14.8498 69.9966 11.8077 55.2781C10.4854 48.8973 10.9801 41.4545 13.2918 32.9499C18.285 14.5772 30.0421 3.81889 48.5631 0.674853C57.4029 -0.827605 66.2519 0.178686 75.1102 3.6937C84.9394 7.58896 94.0242 13.0145 102.365 19.9703C103.668 21.0647 105.134 21.38 106.761 20.9163C124.006 16.0287 142.028 16.0843 160.827 21.0833C161.233 21.1917 161.657 21.2067 162.068 21.1272C162.479 21.0477 162.865 20.8757 163.198 20.6242C168.709 16.4878 174.636 12.4998 180.98 8.66015C195.848 -0.354598 211.142 -2.21412 226.861 3.08158C231.596 4.6675 235.632 6.847 238.97 9.62005C242.65 12.6621 245.683 16.2235 248.069 20.3042C251.36 25.9431 253.63 32.2543 254.879 39.238C256.081 45.9712 255.817 52.8157 254.088 59.7716C251.629 69.5932 248.512 77.5738 244.74 83.7135C242.068 88.0539 239.465 92.4361 236.931 96.86C236.823 97.046 236.758 97.2529 236.741 97.4651C236.724 97.6773 236.756 97.889 236.834 98.0842Z" fill="black"/>
<path d="M347.392 179.493C356.476 181.843 363.233 186.681 367.664 194.005C370.224 198.238 372.104 204.075 373.301 211.516C374.255 217.446 374.723 223.625 374.703 230.052C374.699 230.395 374.562 230.722 374.322 230.963C374.081 231.204 373.756 231.339 373.418 231.339H349.626C349.502 231.34 349.38 231.314 349.266 231.264C349.152 231.215 349.049 231.141 348.964 231.049C348.88 230.958 348.814 230.849 348.772 230.73C348.73 230.611 348.713 230.485 348.721 230.359C349.247 222.664 348.468 215.598 346.384 209.161C346.033 208.069 345.532 207.991 344.88 208.927C343.653 210.683 342.319 212.175 340.878 213.404C339.33 214.72 337.572 215.559 335.606 215.92C330.153 216.934 325.781 214.954 322.49 209.98C321.77 208.898 321.195 208.971 320.767 210.2C319.774 213.018 319.292 215.92 319.321 218.904C319.36 222.571 319.175 226.468 318.766 230.593C318.744 230.799 318.649 230.989 318.497 231.127C318.346 231.264 318.151 231.34 317.948 231.339H293.543C293.292 231.34 293.051 231.242 292.871 231.067C292.691 230.892 292.587 230.654 292.579 230.403C292.355 221.616 293.1 213.35 294.814 205.606C297.666 192.703 305.821 184.091 319.277 179.771C319.574 179.672 319.833 179.484 320.016 179.232C320.2 178.979 320.299 178.677 320.299 178.366V170.905C320.299 170.69 320.226 170.481 320.093 170.314C319.961 170.146 319.776 170.03 319.569 169.983C311.03 168.004 304.458 163.464 299.852 156.363C296.211 150.746 293.918 143.563 292.973 134.814C291.698 123.072 292.564 111.49 295.573 100.069C298.796 87.8292 306.785 79.8317 319.54 76.0768C319.756 76.0135 319.945 75.8836 320.079 75.7068C320.214 75.53 320.286 75.3158 320.285 75.0966L320.241 67.1968C320.236 66.9932 320.163 66.7952 320.032 66.632C319.9 66.4687 319.718 66.3487 319.511 66.2897C305.879 62.3983 297.588 53.4158 294.638 39.3422C292.944 31.296 292.267 23.1572 292.608 14.9257C292.616 14.7251 292.701 14.5353 292.845 14.3962C292.989 14.2571 293.182 14.1794 293.382 14.1795L317.992 14.0918C318.199 14.0913 318.399 14.1695 318.55 14.3107C318.702 14.4519 318.795 14.6455 318.81 14.8525C319.189 19.3389 319.35 23.718 319.292 27.9898C319.253 30.8572 319.847 33.5685 321.073 36.1237C321.106 36.195 321.156 36.2561 321.22 36.3016C321.283 36.3471 321.358 36.3755 321.438 36.3842C321.518 36.3929 321.6 36.3817 321.676 36.3515C321.753 36.3214 321.822 36.2733 321.877 36.2115C329.637 27.6387 337.407 27.9117 345.186 37.0308C345.858 37.8208 346.331 37.7184 346.603 36.7236C348.434 30.0525 349.139 22.8597 348.721 15.1451C348.713 15.0096 348.733 14.8739 348.779 14.7464C348.825 14.6189 348.897 14.5022 348.99 14.4035C349.083 14.3049 349.195 14.2263 349.32 14.1727C349.444 14.1191 349.579 14.0916 349.714 14.0918H373.593C373.877 14.0918 374.15 14.2038 374.352 14.4036C374.555 14.6035 374.67 14.8752 374.674 15.1597C374.83 23.401 374.085 31.2473 372.44 38.6985C370.784 46.2473 368.209 52.0601 364.713 56.1369C360.332 61.2572 354.563 64.6512 347.406 66.319C347.191 66.3685 346.999 66.4851 346.861 66.6498C346.723 66.8145 346.648 67.0176 346.647 67.226L346.603 74.7748C346.603 75.0149 346.684 75.2493 346.834 75.4421C346.985 75.635 347.196 75.7757 347.436 75.8428C355.498 77.9689 361.739 82.0359 366.159 88.0437C369.499 92.5984 371.904 99.2158 373.374 107.896C375.672 121.511 375.02 134.741 371.417 147.586C368.077 159.484 360.191 167.014 347.757 170.174C347.509 170.236 347.288 170.357 347.128 170.518C346.967 170.679 346.875 170.871 346.866 171.066L346.574 178.6C346.565 178.789 346.641 178.981 346.79 179.144C346.939 179.306 347.152 179.429 347.392 179.493ZM344.865 105.38C343.424 107.906 341.462 109.812 338.979 111.1C336.477 112.397 333.916 112.865 331.297 112.504C328.035 112.046 325.338 110.324 323.206 107.34C321.706 105.233 320.742 105.458 320.314 108.013C318.581 118.283 318.668 128.855 320.577 139.73C320.723 140.607 321.112 140.734 321.745 140.11C330.129 131.722 337.899 131.937 345.055 140.754C345.766 141.622 346.262 141.514 346.545 140.432C349.612 128.758 349.592 117.142 346.486 105.584C346.116 104.2 345.576 104.131 344.865 105.38Z" fill="black"/>
<path d="M450.737 127.543C462.772 130.44 470.561 137.579 474.105 148.961C477.416 159.553 478.545 170.598 477.494 182.097C476.52 192.893 474.539 200.964 471.55 206.308C467.285 213.945 460.138 219.246 450.109 222.211C449.949 222.258 449.808 222.357 449.708 222.491C449.608 222.626 449.554 222.789 449.554 222.957V230.359C449.554 230.485 449.53 230.61 449.483 230.727C449.436 230.843 449.367 230.948 449.28 231.037C449.193 231.125 449.089 231.195 448.976 231.242C448.863 231.289 448.742 231.312 448.62 231.31L424.638 231.091C424.458 231.09 424.286 231.01 424.158 230.868C424.029 230.726 423.955 230.533 423.952 230.33L423.806 222.84C423.801 222.634 423.723 222.433 423.583 222.269C423.443 222.105 423.249 221.987 423.031 221.933C415.826 220.099 410.013 216.583 405.593 211.385C402.049 207.211 399.435 201.286 397.75 193.61C394.722 179.702 395.063 165.677 398.772 151.536C402.025 139.14 409.97 131.201 422.608 127.719C423.033 127.598 423.404 127.342 423.659 126.993C423.914 126.644 424.038 126.224 424.01 125.802L423.601 119.073C423.588 118.859 423.505 118.655 423.363 118.487C423.222 118.319 423.029 118.196 422.812 118.137C414.556 115.893 408.256 111.734 403.913 105.658C400.613 101.025 398.266 94.2954 396.874 85.469C394.868 72.7998 395.579 60.121 399.006 47.4323C402.248 35.4069 410.194 27.6094 422.842 24.0398C423.165 23.949 423.449 23.768 423.648 23.5263C423.847 23.2846 423.949 22.9964 423.937 22.7085L423.63 14.8379C423.626 14.741 423.64 14.6444 423.671 14.5538C423.701 14.4632 423.748 14.3805 423.808 14.3107C423.868 14.241 423.94 14.1857 424.02 14.148C424.1 14.1104 424.186 14.0912 424.273 14.0918H448.371C448.6 14.0902 448.82 14.1668 448.986 14.3057C449.152 14.4447 449.251 14.6352 449.262 14.8379L449.773 22.4306C449.79 22.7118 449.868 22.9749 449.996 23.1824C450.125 23.39 450.297 23.5313 450.489 23.5863C458.736 26.0636 465.055 30.2817 469.446 36.2408C472.806 40.8052 475.22 47.5835 476.69 56.5757C478.862 69.9666 478.214 82.7479 474.748 94.9196C471.34 106.867 463.463 114.606 451.117 118.137C450.9 118.199 450.702 118.318 450.543 118.482C450.384 118.646 450.27 118.85 450.212 119.073C449.452 121.911 449.325 124.442 449.832 126.666C449.875 126.874 449.983 127.068 450.144 127.224C450.304 127.379 450.51 127.49 450.737 127.543ZM448.736 53.4012C440.781 62.3934 433.026 62.6421 425.471 54.1473C424.672 53.25 424.132 53.3865 423.849 54.5569C421.23 65.4997 421.298 76.7254 424.054 88.2339C424.278 89.1409 424.638 89.2043 425.135 88.4241C429.039 82.3187 434.837 80.4901 442.529 82.9381C443.659 83.2989 445.806 85.2495 448.97 88.7898C449.301 89.1604 449.52 89.1068 449.627 88.6289C452.12 77.3935 452.242 65.7679 449.992 53.7523C449.817 52.777 449.398 52.6599 448.736 53.4012ZM447.144 190.187C447.641 190.86 448.021 191.42 448.284 191.869C449.15 193.391 449.754 193.288 450.095 191.562C451.029 186.695 451.507 181.892 451.526 177.152C451.555 171.505 451.545 168.13 451.497 167.028C451.331 163.585 450.674 160.24 449.525 156.992C449.36 156.524 449.116 156.48 448.795 156.861C440.265 167.072 432.238 167.023 424.711 156.714C424.409 156.295 424.2 156.339 424.083 156.846C421.298 168.501 421.279 180.195 424.025 191.928C424.2 192.718 424.531 192.791 425.018 192.147C431.084 184.023 437.992 182.887 445.742 188.738C446.268 189.138 446.735 189.621 447.144 190.187Z" fill="black"/>
</svg>

<svg xmlns="http://www.w3.org/2000/svg" fill="none" viewBox="0 0 478 256"><path fill="#000" d="M236.834 98.084q5.576 13.828 16.921 28.227 6.728 8.541 10.139 19.56 3.051 9.863 2.622 21.493-1.083 29.02-19.529 52.851-4.966 6.426-10.958 10.197-14.41 9.084-31.443 10.406-19.376 1.502-37.768 1.572a5.66 5.66 0 0 0-3.384 1.127 73.5 73.5 0 0 1-21.748 11.073q-9.639 3.033-19.071-.459a62.6 62.6 0 0 1-14.633-7.707 40 40 0 0 0-4.633-2.852q-2.219-1.182-5.131-1.196-19.377-.153-35.785-1.377-14.41-1.072-27.657-8.083-9.237-4.897-15.84-13.467-5.2-6.76-10.36-17.612Q1.904 187.8.365 172.484q-2.15-21.466 8.364-39.593.013-.042 9.598-13.48a107.6 107.6 0 0 0 11.65-20.868 2.47 2.47 0 0 0-.264-2.393Q16.373 77.357 11.809 55.278q-1.984-9.57 1.484-22.328Q20.782 5.39 48.563.675 61.823-1.58 75.11 3.694q14.744 5.842 27.255 16.276 1.955 1.642 4.396.946 25.868-7.331 54.066.167c.406.109.83.124 1.241.044s.797-.251 1.13-.503q8.266-6.204 17.782-11.964 22.302-13.522 45.881-5.578 7.102 2.379 12.109 6.538a39.9 39.9 0 0 1 9.099 10.684q4.936 8.459 6.81 18.934 1.803 10.1-.791 20.534-3.69 14.732-9.348 23.941a483 483 0 0 0-7.809 13.147 1.4 1.4 0 0 0-.19.605c-.017.212.015.424.093.62M347.392 179.493q13.626 3.525 20.272 14.512 3.84 6.35 5.637 17.511 1.432 8.895 1.402 18.536c-.004.343-.141.67-.381.911a1.28 1.28 0 0 1-.904.376h-23.792a.893.893 0 0 1-.662-.29.93.93 0 0 1-.243-.69q.789-11.542-2.337-21.198-.526-1.638-1.504-.234-1.84 2.634-4.002 4.477-2.322 1.974-5.272 2.516-8.18 1.521-13.116-5.94-1.08-1.623-1.723.22a25.3 25.3 0 0 0-1.446 8.704q.058 5.501-.555 11.689a.84.84 0 0 1-.269.534.8.8 0 0 1-.549.212h-24.405a.96.96 0 0 1-.672-.272.97.97 0 0 1-.292-.664q-.336-13.18 2.235-24.797 4.278-19.355 24.463-25.835c.297-.099.556-.287.739-.539a1.47 1.47 0 0 0 .283-.866v-7.461a.95.95 0 0 0-.73-.922q-12.808-2.969-19.717-13.62-5.462-8.425-6.879-21.549-1.913-17.613 2.6-34.745 4.834-18.36 23.967-23.992c.216-.064.405-.193.539-.37a1 1 0 0 0 .206-.61l-.044-7.9a.94.94 0 0 0-.209-.565 1.03 1.03 0 0 0-.521-.342q-20.448-5.838-24.873-26.948a98.3 98.3 0 0 1-2.03-24.416.78.78 0 0 1 .774-.746l24.61-.088a.82.82 0 0 1 .818.76q.569 6.73.482 13.138a18 18 0 0 0 1.781 8.134.45.45 0 0 0 .365.26.526.526 0 0 0 .439-.173q11.64-12.859 23.309.82 1.009 1.185 1.417-.307 2.746-10.007 2.118-21.579a1 1 0 0 1 .269-.742 1 1 0 0 1 .724-.311h23.879a1.08 1.08 0 0 1 1.081 1.068q.234 12.361-2.234 23.539-2.484 11.322-7.727 17.438-6.571 7.68-17.307 10.182c-.215.05-.407.166-.545.33a.9.9 0 0 0-.214.577l-.044 7.549c0 .24.081.474.231.667s.362.334.602.4q12.093 3.19 18.723 12.202 5.01 6.832 7.215 19.852 3.447 20.422-1.957 39.69-5.01 17.847-23.66 22.588a1.35 1.35 0 0 0-.629.344.84.84 0 0 0-.262.548l-.292 7.534a.76.76 0 0 0 .216.544c.149.162.362.285.602.349m-2.527-74.113q-2.161 3.788-5.886 5.72-3.753 1.945-7.682 1.404-4.893-.688-8.091-5.164-2.25-3.16-2.892.673-2.6 15.405.263 31.717.219 1.316 1.168.38 12.576-12.582 23.31.644 1.066 1.301 1.49-.322 4.6-17.511-.059-34.848-.555-2.077-1.621-.204M450.737 127.543q18.052 4.345 23.368 21.418 4.966 15.888 3.389 33.136-1.46 16.195-5.944 24.211-6.397 11.456-21.441 15.903a.774.774 0 0 0-.555.746v7.402a.958.958 0 0 1-.274.678.9.9 0 0 1-.304.205.9.9 0 0 1-.356.068l-23.982-.219a.65.65 0 0 1-.48-.223.82.82 0 0 1-.206-.538l-.146-7.49a.9.9 0 0 0-.223-.571 1.06 1.06 0 0 0-.552-.336q-10.808-2.751-17.438-10.548-5.316-6.261-7.843-17.775-4.542-20.862 1.022-42.074 4.88-18.594 23.836-23.817a1.97 1.97 0 0 0 1.051-.726c.255-.349.379-.769.351-1.191l-.409-6.729a1 1 0 0 0-.238-.586 1.1 1.1 0 0 0-.551-.35q-12.384-3.366-18.899-12.479-4.95-6.95-7.039-20.189-3.009-19.004 2.132-38.037 4.863-18.038 23.836-23.392c.323-.091.607-.272.806-.514a1.2 1.2 0 0 0 .289-.817l-.307-7.871a.78.78 0 0 1 .178-.527.6.6 0 0 1 .212-.163.6.6 0 0 1 .253-.056h24.098a.95.95 0 0 1 .615.214c.166.139.265.33.276.532l.511 7.593c.017.28.095.544.223.751.129.208.301.35.493.404q12.37 3.717 18.957 12.655 5.04 6.846 7.244 20.335 3.257 20.085-1.942 38.344-5.112 17.92-23.631 23.217a1.3 1.3 0 0 0-.574.345 1.33 1.33 0 0 0-.331.591q-1.14 4.257-.38 7.593c.043.208.151.402.312.558.16.155.366.266.593.319m-2.001-74.142q-11.933 13.488-23.265.746-1.198-1.345-1.622.41-3.929 16.414.205 33.677.336 1.36 1.081.19 5.856-9.158 17.394-5.486 1.695.54 6.441 5.852.497.555.657-.161 3.74-16.854.365-34.877-.263-1.463-1.256-.35m-1.592 136.786q.745 1.009 1.14 1.682 1.3 2.282 1.811-.307 1.402-7.3 1.431-14.41.043-8.47-.029-10.124a35 35 0 0 0-1.972-10.036q-.248-.702-.73-.131-12.794 15.317-24.084-.147-.453-.629-.628.132-4.177 17.483-.058 35.082.262 1.185.993.219 9.099-12.186 20.724-3.409.789.6 1.402 1.449"/></svg>
